assets/images/logo.svg

<svg width="60" height="40" viewBox="0 0 60 40" fill="none" xmlns="http://www.w3.org/2000/svg">
<g clip-path="url(#clip0_201_946)">
<path d="M0 16.6225H11.6348V23.7776C11.6348 27.1572 10.4358 30.0558 8.04376 32.4583C6.18082 34.3287 4.01813 35.4723 1.5482 35.8904C1.71007 37.3787 1.30091 38.8354 0.469107 40C4.47675 39.7542 7.93136 38.1775 10.8419 35.2714C14.0163 32.0971 15.6049 28.2618 15.6049 23.7761V12.6539H2.44595L0 16.6225Z" fill="#006633"/>
<path fill-rule="evenodd" clip-rule="evenodd" d="M7.44439 0.185812C4.54881 0.962162 2.83125 3.93867 3.6061 6.83424C4.38245 9.72982 7.35896 11.4489 10.2545 10.6725C13.1501 9.89618 14.8692 6.91967 14.0928 4.0241C13.318 1.12852 10.3415 -0.589039 7.44439 0.185812Z" fill="#009640"/>
<path d="M44.9937 17.4858C44.9697 18.4135 44.7914 19.2708 44.4602 20.0577C44.129 20.8445 43.6868 21.471 43.1323 21.9341C42.5703 22.3987 41.9693 22.6295 41.3323 22.6295H38.2839V20.4503H41.3323C41.6216 20.4503 41.9003 20.3709 42.1701 20.212C42.4384 20.0532 42.6767 19.8209 42.8835 19.5166C43.1233 19.1629 43.2927 18.7658 43.3931 18.3266H37.6724V17.1921C37.6724 16.2284 37.8372 15.3336 38.1684 14.5093C38.4997 13.685 38.9463 13.0301 39.5083 12.5415C40.0629 12.0649 40.6699 11.8281 41.3323 11.8281H44.1409V13.9878H41.3323C40.7538 13.9878 40.2367 14.3055 39.7811 14.9395C39.5413 15.2932 39.3674 16.062 39.2595 16.5266H44.9922V17.4843L44.9937 17.4858Z" fill="#1D1D1B"/>
<path d="M24.3201 31.1753C24.2962 32.1031 24.1178 32.9603 23.7866 33.7472C23.4554 34.534 23.0132 35.1605 22.4587 35.6236C21.8967 36.0882 21.2957 36.319 20.6587 36.319H17.6103V34.1399H20.6587C20.948 34.1399 21.2267 34.0604 21.4965 33.9016C21.7648 33.7427 22.0031 33.5104 22.2099 33.2061C22.4497 32.8524 22.6191 32.4553 22.7195 32.0161H16.9988V30.8816C16.9988 29.9179 17.1636 29.0231 17.4949 28.1988C17.8261 27.3745 18.2727 26.7196 18.8347 26.231C19.3893 25.7544 19.9963 25.5176 20.6587 25.5176H23.4674V27.6773H20.6587C20.0802 27.6773 19.5631 27.995 19.1075 28.629C18.8677 28.9827 18.6939 29.7515 18.586 30.2161H24.3186V31.1738L24.3201 31.1753Z" fill="#1D1D1B"/>
<path d="M24.9062 13.4482C25.7125 14.4044 26.1156 15.6634 26.1156 17.2296C26.1156 18.7958 25.7125 20.0547 24.9062 21.0109C24.0998 21.9671 22.9863 22.4437 21.564 22.4437C20.1416 22.4437 19.0266 21.9656 18.2158 21.0109C17.4049 20.0562 16.9988 18.7958 16.9988 17.2296C16.9988 15.6634 17.4019 14.4044 18.2083 13.4482C19.0146 12.4935 20.1327 12.0154 21.564 12.0154C22.9953 12.0154 24.0983 12.4935 24.9062 13.4482ZM19.7505 14.7372C19.3368 15.3427 19.1315 16.173 19.1315 17.2296C19.1315 18.2862 19.3383 19.1165 19.7505 19.722C20.1626 20.3275 20.7681 20.6287 21.5655 20.6287C22.3628 20.6287 22.9533 20.326 23.3654 19.722C23.7776 19.1165 23.9844 18.2862 23.9844 17.2296C23.9844 16.173 23.7776 15.3427 23.3654 14.7372C22.9518 14.1317 22.3523 13.8304 21.5655 13.8304C20.7786 13.8304 20.1626 14.1332 19.7505 14.7372Z" fill="#1D1D1B"/>
<path d="M31.775 22.2698H28.3608V12.1877H31.4722C32.6338 12.1877 33.5435 12.4081 34.2014 12.8502C34.8594 13.2923 35.1876 13.9398 35.1876 14.7941C35.1876 15.7248 34.8174 16.4217 34.0786 16.8818C35.0677 17.3434 35.5623 18.1453 35.5623 19.2873C35.5623 20.2765 35.2281 21.0198 34.5611 21.5204C33.8942 22.0195 32.965 22.2698 31.7735 22.2698H31.775ZM30.3632 14.3879V16.3782H31.8469C32.7117 16.3782 33.1433 15.9556 33.1433 15.1103C33.1433 14.3324 32.5903 13.9443 31.4872 13.9443H30.8083C30.564 13.9443 30.3647 14.1436 30.3647 14.3879H30.3632ZM30.3632 18.9021V20.5118H31.6011C32.2351 20.5118 32.7117 20.4159 33.0339 20.224C33.3562 20.0322 33.5165 19.7099 33.5165 19.2588C33.5165 18.3761 32.935 17.9339 31.7735 17.9339H31.3299C30.7948 17.9339 30.3617 18.3671 30.3617 18.9021H30.3632Z" fill="#1D1D1B"/>
<path d="M48.1336 13.0975C47.7515 13.0975 47.3948 12.9791 47.104 12.7753V22.2713H49.1633V12.7753C48.871 12.9791 48.5158 13.0975 48.1336 13.0975Z" fill="#006633"/>
<path d="M53.6265 22.2698H51.7246V12.1877H53.7119C54.9409 14.5603 56.4052 16.9597 58.1048 19.3892C58.0658 19.043 58.0478 18.6264 58.0478 18.1363V12.1877H59.9497V22.2698H57.9474C56.9867 20.9839 56.1804 19.8553 55.5284 18.8856C54.875 17.9159 54.223 16.8354 53.5696 15.6453C53.607 16.1444 53.6265 16.7155 53.6265 17.3599V22.2713V22.2698Z" fill="#1D1D1B"/>
<path d="M33.1896 36.3191L32.5841 34.1009H28.8687C28.6664 34.7739 28.4656 35.5127 28.2632 36.3191H26.1455C27.298 32.1046 28.4641 28.1434 29.6451 25.6375H31.7913C33.0113 28.2213 34.1818 32.181 35.3058 36.3191H33.1881H33.1896ZM30.7272 27.8257C30.381 28.5751 29.9298 30.48 29.3738 32.3429H32.067C31.4915 30.4125 31.0449 28.5076 30.7272 27.8257Z" fill="#1D1D1B"/>
<path d="M37.1089 32.1091V25.6705H39.1682V31.9652C39.1682 33.6363 39.8156 34.4711 41.112 34.4711C42.4084 34.4711 43.0424 33.6363 43.0424 31.9652V25.6705H45.1017V32.1091C45.1017 33.4624 44.7615 34.4981 44.0795 35.213C43.3976 35.9279 42.4084 36.2861 41.112 36.2861C39.8156 36.2861 38.8234 35.9279 38.1385 35.213C37.4521 34.4981 37.1089 33.4624 37.1089 32.1091Z" fill="#1D1D1B"/>
<path d="M47.5342 36.3191V25.6375H50.9049C52.4321 25.6375 53.6491 26.0871 54.5558 26.9849C55.4625 27.8826 55.9167 29.1041 55.9167 30.6508C55.9167 32.1975 55.461 34.053 54.5483 34.9597C53.6356 35.8664 52.4216 36.3206 50.9049 36.3206H47.5342V36.3191ZM50.8464 27.394C50.154 27.394 49.5935 27.9546 49.5935 28.647V34.561H50.8464C52.8053 34.561 53.7839 32.857 53.7839 30.6478C53.7839 28.4387 52.8053 27.3925 50.8464 27.3925V27.394Z" fill="#1D1D1B"/>
<path d="M57.8906 36.2591V25.5776H59.9499V36.2591H57.8906Z" fill="#1D1D1B"/>
<path d="M49.634 11.1522C49.634 11.5613 49.4722 11.9315 49.2069 12.2028C49.1919 12.2178 49.1784 12.2313 49.1634 12.2447C48.8952 12.4995 48.5325 12.6524 48.1338 12.6524C47.7351 12.6524 47.3724 12.498 47.1042 12.2447L47.0607 12.2013C46.7969 11.93 46.6335 11.5598 46.6335 11.1522C46.6335 10.3249 47.305 9.65192 48.1338 9.65192C48.9626 9.65192 49.634 10.3249 49.634 11.1522Z" fill="#009640"/>
</g>
<defs>
<clipPath id="clip0_201_946">
<rect width="59.9498" height="40" fill="white"/>
</clipPath>
</defs>
</svg>

<svg width="60" height="40" fill="none" xmlns="http://www.w3.org/2000/svg"><g clip-path="url(#a)"><path d="M0 16.622h11.635v7.156c0 3.38-1.2 6.278-3.591 8.68-1.863 1.87-4.026 3.014-6.496 3.432A5.963 5.963 0 0 1 .47 40c4.008-.246 7.462-1.822 10.373-4.729 3.174-3.174 4.763-7.01 4.763-11.495V12.654H2.445L.001 16.622Z" fill="#063"/><path fill-rule="evenodd" clip-rule="evenodd" d="M7.444.186a5.428 5.428 0 1 0 2.81 10.486A5.428 5.428 0 0 0 7.445.186Z" fill="#009640"/><path d="M44.994 17.486a7.04 7.04 0 0 1-.534 2.572c-.331.787-.773 1.413-1.328 1.876-.562.465-1.163.695-1.8.695h-3.048V20.45h3.048c.29 0 .568-.08.838-.238.268-.159.507-.391.713-.695.24-.354.41-.751.51-1.19h-5.72v-1.135c0-.964.164-1.858.495-2.683.332-.824.778-1.479 1.34-1.968.555-.476 1.162-.713 1.824-.713h2.809v2.16h-2.809c-.578 0-1.095.318-1.55.952-.24.353-.415 1.122-.522 1.587h5.732v.957l.002.002ZM24.32 31.175a7.038 7.038 0 0 1-.533 2.572c-.332.787-.774 1.413-1.328 1.877-.562.464-1.163.695-1.8.695H17.61v-2.18h3.049c.289 0 .568-.079.838-.237.268-.16.506-.392.713-.696.24-.354.41-.75.51-1.19h-5.721v-1.134c0-.964.165-1.859.496-2.683.331-.825.778-1.48 1.34-1.968.554-.477 1.161-.713 1.824-.713h2.808v2.16H20.66c-.579 0-1.096.317-1.551.951-.24.354-.414 1.122-.522 1.587h5.733v.958l.001.001ZM24.906 13.448c.806.956 1.21 2.215 1.21 3.782 0 1.566-.404 2.825-1.21 3.78-.806.957-1.92 1.434-3.342 1.434-1.422 0-2.537-.478-3.348-1.433-.811-.955-1.217-2.215-1.217-3.781 0-1.567.403-2.826 1.21-3.782.806-.955 1.924-1.433 3.355-1.433s2.534.478 3.342 1.433Zm-5.155 1.29c-.414.605-.62 1.435-.62 2.492 0 1.056.207 1.886.62 2.492.412.605 1.017.907 1.814.907.798 0 1.388-.303 1.8-.907.413-.606.62-1.436.62-2.492 0-1.057-.207-1.887-.62-2.493-.413-.605-1.013-.907-1.8-.907-.786 0-1.402.303-1.815.907ZM31.775 22.27h-3.414V12.188h3.111c1.162 0 2.072.22 2.73.662.657.442.986 1.09.986 1.944 0 .93-.37 1.628-1.11 2.088.99.461 1.484 1.263 1.484 2.405 0 .99-.334 1.733-1 2.233-.668.5-1.597.75-2.788.75h.001Zm-1.412-7.882v1.99h1.484c.865 0 1.296-.422 1.296-1.268 0-.778-.553-1.166-1.656-1.166h-.679c-.244 0-.443.2-.443.444h-.002Zm0 4.514v1.61h1.238c.634 0 1.11-.096 1.433-.288.322-.192.483-.514.483-.965 0-.883-.582-1.325-1.744-1.325h-.443a.968.968 0 0 0-.968.968h.001Z" fill="#1D1D1B"/><path d="M48.134 13.098a1.79 1.79 0 0 1-1.03-.323v9.496h2.06v-9.496a1.794 1.794 0 0 1-1.03.322Z" fill="#063"/><path d="M53.627 22.27h-1.902V12.188h1.987c1.229 2.372 2.693 4.772 4.393 7.201a11.45 11.45 0 0 1-.057-1.253v-5.948h1.902V22.27h-2.003a85.233 85.233 0 0 1-2.419-3.384 41.875 41.875 0 0 1-1.958-3.24c.037.498.056 1.07.056 1.714v4.911-.001ZM33.19 36.32l-.606-2.22H28.87a50.224 50.224 0 0 0-.606 2.22h-2.118c1.153-4.215 2.32-8.177 3.5-10.683h2.146c1.22 2.584 2.39 6.544 3.515 10.682h-2.118.002Zm-2.463-8.494c-.346.75-.797 2.654-1.353 4.517h2.693c-.576-1.93-1.022-3.835-1.34-4.517ZM37.109 32.11v-6.44h2.06v6.295c0 1.671.647 2.506 1.943 2.506s1.93-.835 1.93-2.506v-6.294h2.06v6.438c0 1.353-.34 2.39-1.022 3.104-.682.715-1.672 1.073-2.968 1.073s-2.289-.358-2.974-1.073c-.686-.715-1.03-1.75-1.03-3.104ZM47.534 36.32V25.636h3.37c1.528 0 2.745.45 3.652 1.348.907.898 1.36 2.12 1.36 3.666 0 1.546-.455 3.402-1.368 4.309-.912.906-2.126 1.36-3.643 1.36h-3.37Zm3.312-8.926c-.692 0-1.252.56-1.252 1.253v5.914h1.252c1.96 0 2.938-1.704 2.938-3.913 0-2.21-.979-3.256-2.938-3.256v.002ZM57.89 36.26V25.577h2.06v10.681h-2.06Z" fill="#1D1D1B"/><path d="M49.634 11.152c0 .41-.162.78-.427 1.05a1.487 1.487 0 0 1-1.073.45c-.399 0-.762-.154-1.03-.407l-.043-.044a1.501 1.501 0 1 1 2.573-1.049Z" fill="#009640"/></g><defs><clipPath id="a"><path fill="#fff" d="M0 0h59.95v40H0z"/></clipPath></defs></svg>
